; generated by PrusaSlicer 2.8.0+win64


; printer_model = MK4S
; filament_type = PLA
; nozzle_diameter = 0.4
; bed_temperature = 55
; brim_width = 0
; fill_density = 10%
; layer_height = 0.25
; temperature = 220
; ironing = 0
; support_material = 0
; max_layer_z = 48.00
; extruder_colour = ""
; filament used [mm] = 3471.06
; filament used [cm3] = 8.35
; filament used [g] = 10.35
; filament cost = 0.38
; estimated printing time (normal mode) = 14m 11s

;
;

;
;

;
;

;
;

;
;

; objects_info = {"objects":[{"name":"3DBenchy.stl","polygon":[[131.365,89.520],[133.559,89.628],[134.835,89.792],[137.335,90.482],[139.035,91.080],[140.755,91.798],[142.567,92.690],[144.125,93.578],[146.927,95.486],[148.527,96.784],[149.999,98.134],[152.501,100.850],[153.787,102.506],[154.685,103.812],[154.979,104.664],[154.999,105.162],[154.919,105.646],[154.627,106.314],[153.523,107.878],[151.909,109.874],[150.037,111.854],[148.341,113.402],[146.175,115.094],[144.655,116.120],[142.597,117.320],[140.543,118.322],[138.507,119.144],[136.145,119.898],[134.309,120.334],[131.005,120.512],[128.193,120.454],[125.393,120.204],[116.883,118.796],[110.660,117.863],[103.809,116.980],[96.829,116.234],[95.981,115.922],[95.409,115.384],[95.129,114.862],[95.003,114.220],[95.003,95.828],[95.075,95.336],[95.225,94.944],[95.485,94.544],[95.889,94.166],[96.313,93.932],[96.859,93.788],[103.379,93.096],[110.411,92.198],[116.236,91.334],[125.057,89.866],[128.073,89.578]]}]}
M73 P0 R14
M201 X7000 Y7000 Z400 E6000
M203 X300 Y300 Z40 E100
M204 P7000 R6000 T7000
M205 X10.00 Y10.00 Z2.00 E10.00
M205 S0 T0
M486 S0
M486 A3DBenchy.stl
M486 S-1
;TYPE:Custom
M17
M862.1 P0.4
M862.3 P "MK4S"
M862.5 P2
M862.6 P"Input shaper"
M115 U5.1.2+13478
M555 X99.1184 Y92.8962 W39.0336 H20.2343
G90
M83
M140 S57
M104 T0 S170
M109 T0 R170
M84 E
G28
G1 X42 Y-4 Z5 F4800
M302 S160
G1 E-2 F2400
M84 E
G29 P9 X10 Y-4 W32 H4
M106 S100
G0 Z40 F10000
M190 S57
M107
; MBL
M84 E
G29 P1
G29 P1 X0 Y0 W50 H20 C
G29 P3.2
G29 P3.13
G29 A
; prepare for purge
M104 S230
G0 X0 Y-4 Z15 F4800
M109 S230
G92 E0
M569 S0 E
; Extrude purge line
G92 E0
G1 E2 F2400
G0 E7 X15 Z0.2 F500
G0 X25 E4 F500
G0 X35 E4 F650
G0 X45 E4 F800
G0 X48 Z0.05 F8000
G0 X51 Z0.2 F8000
G92 E0
M221 S100
G21
G90
M83
M900 K0.05
M572 S0.036
M142 S36
M107
;LAYER_CHANGE
;Z:0.25
;HEIGHT:0.25
G1 E-.5 F4800
G1 Z.25 F2400
M486 S0
G1 X125.152 Y104.14 F18000
G1 Z.25 F2400
M73 P1 R14
G1 E.5 F4800
M204 P4000
;TYPE:External perimeter
;WIDTH:0.499999
G1 F6000
G1 X125.172 Y104.15 E.00104
G3 X125.315 Y104.071 I.161 J.121 E.00781
G1 X125.592 Y103.451 E.0315
G1 X125.856 Y103.208 E.01665
G1 X126.299 Y103.091 E.02126
G1 X126.649 Y103.234 E.01754
G1 X126.875 Y103.516 E.01677
;WIDTH:0.504969
G1 X126.958 Y103.976 E.02193
;WIDTH:0.522727
G1 X126.9 Y104.383 E.02004
G1 X126.627 Y104.965 E.03134
;WIDTH:0.499999
G1 X126.309 Y105.527 E.02996
G1 X126.242 Y105.718 E.00939
G1 X126.308 Y105.916 E.00968
G1 X127.057 Y107.206 E.0692
G1 X127.145 Y107.72 E.02419
G1 X127.046 Y108.085 E.01755
G1 X126.782 Y108.387 E.01861
G1 X126.359 Y108.546 E.02096
G1 X126.021 Y108.517 E.01574
G1 X125.645 Y108.291 E.02035
G1 X125.486 Y108.053 E.01328
G1 X125.32 Y107.522 E.02581
G2 X125.089 Y107.359 I-.462 J.413 E.01323
G1 X124.966 Y107.446 E.00699
G2 X124.789 Y107.946 I1.81 J.919 E.02468
G1 X124.526 Y108.296 E.02031
G1 X124.219 Y108.467 E.0163
G1 X123.902 Y108.454 E.01472
G1 X123.588 Y108.278 E.0167
G3 X123.367 Y107.748 I.999 J-.728 E.02689
;WIDTH:0.4946
G1 X123.484 Y107.205 E.02546
;WIDTH:0.499999
G1 X123.627 Y106.725 E.02324
G3 X124.11 Y105.781 I3.727 J1.31 E.04934
G1 X123.38 Y104.496 E.06856
G1 X123.227 Y104.015 E.02342
G1 X123.277 Y103.613 E.01879
G1 X123.418 Y103.376 E.01279
G1 X123.719 Y103.152 E.01741
G1 X124.117 Y103.065 E.0189
G1 X124.407 Y103.139 E.01388
G1 X124.729 Y103.38 E.01866
G1 X124.987 Y103.947 E.0289
G1 X125.098 Y104.113 E.00926
M204 P7000
G1 X125.414 Y103.869 F18000
G1 E-.5 F4800
M204 T7000
G1 X120.543 Y107.883 F18000
G1 E.5 F4800
M204 P4000
G1 F6000
G1 X120.533 Y107.855 E.00138
G1 X120.523 Y107.286 E.0264
G1 X120.579 Y107.156 E.00657
;WIDTH:0.456709
G1 X120.635 Y107.026 E.00593
;WIDTH:0.413418
G1 X120.69 Y106.896 E.00528
G1 X120.772 Y106.749 E.00629
;WIDTH:0.456709
G1 X120.853 Y106.602 E.00703
;WIDTH:0.499999
G1 X120.934 Y106.455 E.00779
G1 X121.462 Y106.085 E.02991
G1 X121.858 Y105.99 E.01889
G1 X122.357 Y106.081 E.02353
G1 X122.778 Y106.412 E.02485
G1 X122.963 Y106.77 E.0187
G1 X123.003 Y107.409 E.0297
G1 X122.85 Y108.1 E.03283
G1 X122.597 Y108.484 E.02133
G1 X122.395 Y108.639 E.01181
G1 X121.891 Y108.813 E.02474
G1 X121.386 Y108.769 E.02352
G1 X121.019 Y108.595 E.01884
G1 X120.672 Y108.227 E.02347
G1 X120.565 Y107.939 E.01425
M204 P7000
G1 X120.531 Y107.54 F18000
G1 E-.5 F4800
G1 X116.148 Y108.279 F18000
G1 E.5 F4800
M204 P4000
G1 F6000
G1 X116.014 Y108.191 E.00744
G1 X115.767 Y107.847 E.01965
G1 X115.673 Y107.377 E.02224
;WIDTH:0.537239
G1 X115.656 Y107.126 E.01264
;WIDTH:0.574478
G3 X115.664 Y106.344 I4.727 J-.344 E.04238
;WIDTH:0.536465
G1 X115.68 Y105.432 E.04577
;WIDTH:0.499999
G3 X115.687 Y103.065 I84.107 J-.922 E.10982
G1 X115.654 Y102.386 E.03154
G1 X115.784 Y102.016 E.01819
G1 X116.042 Y101.768 E.0166
G1 X116.409 Y101.631 E.01817
G1 X116.741 Y101.598 E.01548
G1 X118.346 Y101.633 E.07448
G1 X118.955 Y101.722 E.02855
G1 X119.529 Y101.908 E.02799
G1 X119.983 Y102.196 E.02494
G1 X120.351 Y102.564 E.02414
G1 X120.646 Y103.012 E.02489
G1 X120.867 Y103.529 E.02608
G3 X121.065 Y104.807 I-6.017 J1.584 E.06011
G1 X121.007 Y105.37 E.02626
G1 X120.638 Y106.388 E.05023
;WIDTH:0.487657
G1 X120.563 Y106.516 E.00669
;WIDTH:0.448512
G1 X120.488 Y106.644 E.00609
;WIDTH:0.409367
G1 X120.413 Y106.771 E.00545
;WIDTH:0.413481
G1 X120.345 Y106.916 E.00599
;WIDTH:0.45674
G1 X120.277 Y107.06 E.00667
;WIDTH:0.499999
G1 X120.209 Y107.204 E.00739
G1 X119.871 Y107.669 E.02667
G1 X119.642 Y107.896 E.01496
G1 X119.206 Y108.151 E.02343
G1 X118.42 Y108.317 E.03727
G1 X117.865 Y108.348 E.02579
G2 X116.663 Y108.375 I-.399 J9.062 E.05582
G1 X116.206 Y108.317 E.02137
G1 X116.198 Y108.311 E.00046
M204 P7000
G1 X115.911 Y108.032 F18000
G1 E-.5 F4800
G1 X114.821 Y105.072 F18000
G1 E.5 F4800
M204 P4000
G1 F6000
G3 X114.842 Y105.102 I-.361 J.264 E.0017
;WIDTH:0.54881
G1 X115.168 Y105.974 E.04791
G1 X115.18 Y106.387 E.02126
;WIDTH:0.55784
G1 X115.104 Y106.854 E.02479
G1 X114.997 Y107.081 E.01315
;WIDTH:0.52892
G1 X114.89 Y107.309 E.01244
;WIDTH:0.499999
G1 X114.602 Y107.734 E.02382
G1 X114.196 Y108.102 E.02542
G1 X113.655 Y108.38 E.02822
G1 X113.159 Y108.495 E.02362
G1 X112.323 Y108.501 E.03879
G1 X111.872 Y108.416 E.02129
G1 X111.351 Y108.197 E.02622
G1 X111.057 Y107.956 E.01764
G3 X110.755 Y107.126 I.943 J-.813 E.04189
G1 X110.815 Y106.828 E.0141
G1 X110.971 Y106.564 E.01423
G1 X111.211 Y106.375 E.01417
;WIDTH:0.529126
G1 X111.668 Y106.238 E.02358
;WIDTH:0.565972
G1 X111.799 Y106.234 E.00698
;WIDTH:0.602818
G1 X111.93 Y106.229 E.00748
;WIDTH:0.639663
G1 X112.061 Y106.224 E.00798
G1 X112.213 Y106.328 E.01122
;WIDTH:0.593109
G1 X112.365 Y106.431 E.0103
;WIDTH:0.546554
G1 X112.517 Y106.534 E.00941
;WIDTH:0.499999
G1 X112.792 Y106.721 E.01543
G1 X112.995 Y106.665 E.00977
G1 X113.15 Y106.445 E.01249
G1 X113.154 Y106.217 E.01058
G1 X113.058 Y105.989 E.01148
G1 X112.846 Y105.801 E.01315
;WIDTH:0.511106
G1 X112.6 Y105.679 E.01306
;WIDTH:0.553959
G1 X112.474 Y105.674 E.00656
;WIDTH:0.596811
G1 X112.348 Y105.669 E.00712
;WIDTH:0.639663
G1 X112.222 Y105.663 E.00768
G1 X112.027 Y105.598 E.01252
;WIDTH:0.602685
G1 X111.939 Y105.534 E.00621
;WIDTH:0.568457
G1 X111.852 Y105.471 E.00575
;WIDTH:0.534228
G1 X111.764 Y105.407 E.00544
;WIDTH:0.499999
G1 X111.531 Y105.142 E.01637
G1 X111.466 Y104.835 E.01456
G1 X111.549 Y104.391 E.02096
;WIDTH:0.500335
G1 X111.745 Y104.121 E.01549
;WIDTH:0.501993
G1 X112.051 Y103.932 E.01676
;WIDTH:0.5235
G1 X112.533 Y103.754 E.02509
G1 X112.785 Y103.588 E.01474
;WIDTH:0.522301
G2 X112.848 Y103.329 I-.236 J-.194 E.01344
G1 X112.698 Y103.243 E.00842
;WIDTH:0.5235
G2 X111.887 Y103.515 I.538 J2.945 E.04192
;WIDTH:0.501993
G1 X111.579 Y103.571 E.01459
;WIDTH:0.500335
G1 X111.19 Y103.398 E.01977
;WIDTH:0.515825
G1 X110.913 Y102.965 E.02469
;WIDTH:0.519239
G1 X110.915 Y102.49 E.02299
G1 X111.071 Y102.115 E.01965
;WIDTH:0.499999
G1 X111.359 Y101.827 E.0189
G1 X111.826 Y101.577 E.02457
G3 X112.723 Y101.434 I.969 J3.195 E.04227
G3 X113.748 Y101.578 I-.025 J3.921 E.04816
G1 X114.261 Y101.841 E.02674
G1 X114.635 Y102.224 E.02483
G1 X114.868 Y102.73 E.02584
G1 X114.908 Y103.133 E.01879
G1 X114.793 Y103.827 E.03264
G3 X114.3 Y104.39 I-3.148 J-2.26 E.03477
G1 X114.049 Y104.52 E.01311
G1 X114.367 Y104.667 E.01625
G1 X114.578 Y104.904 E.01472
G3 X114.783 Y105.026 I-.118 J.432 E.0112
M204 P7000
G1 X114.946 Y105.391 F18000
G1 E-.5 F4800
G1 X110.295 Y103.095 F18000
G1 E.5 F4800
M204 P4000
;WIDTH:0.515825
G1 F6000
G1 X110.235 Y103.192 E.00548
;WIDTH:0.499999
G3 X109.761 Y103.412 I-.661 J-.805 E.0245
G3 X108.697 Y103.452 I-.706 J-4.556 E.04951
G1 X108.679 Y106.536 E.14308
G3 X108.643 Y107.676 I-4.667 J.422 E.05305
G1 X108.393 Y108.119 E.0236
G1 X108.025 Y108.33 E.01968
G1 X107.649 Y108.367 E.01753
G1 X107.243 Y108.256 E.01953
G1 X106.948 Y107.995 E.01827
G1 X106.824 Y107.651 E.01696
G1 X106.853 Y106.94 E.03301
G3 X106.835 Y104.161 I117.141 J-2.144 E.12893
G1 X106.862 Y103.553 E.02823
G1 X106.803 Y103.462 E.00503
G1 X105.742 Y103.461 E.04922
G1 X105.41 Y103.331 E.01654
;WIDTH:0.500161
G1 X105.215 Y103.108 E.01375
;WIDTH:0.50446
G1 X105.098 Y102.701 E.01984
G1 X105.08 Y102.254 E.02096
;WIDTH:0.499999
G1 X105.196 Y101.94 E.01553
G1 X105.514 Y101.675 E.0192
G1 X106.013 Y101.585 E.02352
G1 X106.552 Y101.618 E.02505
G3 X109.631 Y101.619 I1.489 J132.806 E.14285
G1 X109.887 Y101.658 E.01201
G1 X110.272 Y101.844 E.01984
G1 X110.427 Y102.088 E.01341
;WIDTH:0.519239
G1 X110.461 Y102.402 E.01528
G1 X110.412 Y102.903 E.02436
;WIDTH:0.515825
G1 X110.326 Y103.043 E.00789
M204 P7000
G1 X110.028 Y103.31 F18000
G1 E-.5 F4800
G1 X104.811 Y106.988 F18000
G1 E.5 F4800
M204 P4000
;WIDTH:0.499999
G1 F6000
G1 X104.818 Y107.025 E.00175
G1 X104.753 Y107.296 E.01293
G1 X104.491 Y107.75 E.02432
G1 X104.106 Y108.104 E.02426
G1 X103.758 Y108.301 E.01855
G3 X102.61 Y108.517 I-1.111 J-2.744 E.05455
G1 X101.93 Y108.453 E.03169
G1 X101.37 Y108.273 E.02729
G1 X100.909 Y108.015 E.02451
G1 X100.418 Y107.569 E.03077
G1 X100.116 Y107.111 E.02545
;WIDTH:0.520262
G1 X99.952 Y106.666 E.023
G1 X99.851 Y105.858 E.03949
;WIDTH:0.499722
G1 X99.815 Y105.053 E.03736
;WIDTH:0.503758
G1 X99.829 Y104.515 E.02518
;WIDTH:0.510109
G1 X99.903 Y103.643 E.04152
;WIDTH:0.538632
G1 X100.019 Y103.051 E.03041
G1 X100.357 Y102.465 E.0341
;WIDTH:0.499999
G1 X100.812 Y102.013 E.02975
G1 X101.38 Y101.676 E.03064
G1 X101.911 Y101.505 E.02588
G1 X102.817 Y101.443 E.04213
G1 X103.487 Y101.557 E.03153
G1 X103.95 Y101.761 E.02347
G1 X104.356 Y102.108 E.02478
;WIDTH:0.500491
G1 X104.557 Y102.444 E.01818
;WIDTH:0.502099
G1 X104.664 Y102.871 E.02052
G1 X104.625 Y103.308 E.02045
;WIDTH:0.499999
G1 X104.477 Y103.566 E.0138
G1 X104.311 Y103.703 E.00999
G1 X103.955 Y103.842 E.01773
G1 X103.66 Y103.828 E.0137
G3 X102.783 Y103.392 I1.027 J-3.169 E.0456
G1 X102.489 Y103.342 E.01384
G2 X101.94 Y103.561 I.207 J1.315 E.02765
G1 X101.764 Y103.774 E.01282
G1 X101.587 Y104.211 E.02187
G1 X101.514 Y104.937 E.03385
G1 X101.58 Y105.708 E.0359
G1 X101.751 Y106.184 E.02346
G2 X102.151 Y106.536 I1.193 J-.952 E.02485
G1 X102.516 Y106.624 E.01742
G1 X102.895 Y106.571 E.01775
G2 X103.21 Y106.309 I-.845 J-1.334 E.01906
G1 X103.636 Y106.119 E.02164
G1 X104.114 Y106.153 E.02223
G1 X104.544 Y106.396 E.02291
G1 X104.764 Y106.715 E.01798
G1 X104.801 Y106.928 E.01003
M204 P7000
G1 X104.721 Y107.32 F18000
G1 E-.5 F4800
G1 X129.594 Y105.543 F18000
G1 E.5 F4800
M204 P4000
G1 F6000
G1 X129.772 Y104.969 E.02788
G1 X129.849 Y104.313 E.03064
G1 X129.998 Y103.786 E.02541
G1 X130.287 Y103.35 E.02427
G1 X130.673 Y103.12 E.02085
G1 X130.792 Y103.1 E.0056
G1 X131.14 Y103.168 E.01645
G1 X131.436 Y103.454 E.0191
G1 X131.567 Y103.947 E.02367
;WIDTH:0.499882
G1 X131.527 Y104.483 E.02493
;WIDTH:0.499999
G3 X130.926 Y106.529 I-11.572 J-2.292 E.09906
G3 X129.768 Y109.629 I-52.142 J-17.697 E.15355
M73 P1 R13
G3 X129.3 Y110.441 I-4.051 J-1.792 E.04356
G1 X128.895 Y110.776 E.02438
G1 X128.407 Y110.987 E.02467
G3 X127.71 Y111.074 I-.823 J-3.763 E.03263
G1 X127.256 Y110.902 E.02252
G1 X127.007 Y110.624 E.01731
G1 X126.861 Y110.243 E.01893
G1 X126.875 Y109.788 E.02112
G1 X126.981 Y109.583 E.01071
G1 X127.253 Y109.355 E.01647
G1 X127.863 Y109.151 E.02984
G1 X128.06 Y108.995 E.01166
G1 X128.288 Y108.478 E.02621
G2 X128.597 Y107.733 I-4.347 J-2.238 E.03746
G1 X128.44 Y107.308 E.02102
G3 X127.587 Y105.051 I66.837 J-26.53 E.11194
;WIDTH:0.514911
G1 X127.423 Y104.501 E.02752
G1 X127.406 Y103.925 E.02763
;WIDTH:0.501727
G1 X127.461 Y103.486 E.02061
;WIDTH:0.499999
G3 X127.816 Y103.136 I.852 J.507 E.02338
G1 X128.15 Y103.077 E.01574
G1 X128.476 Y103.124 E.01528
G1 X128.821 Y103.311 E.01821
G1 X129.075 Y103.662 E.0201
G3 X129.299 Y104.92 I-7.793 J2.034 E.05934
G1 X129.548 Y105.563 E.03199
M204 P7000
G1 X129.699 Y105.193 F18000
G1 E-.5 F4800
G1 X134.444 Y106.733 F18000
G1 E.5 F4800
M204 P4000
G1 F6000
G1 X134.47 Y106.736 E.00121
G1 X134.57 Y106.829 E.00634
G1 X134.737 Y106.769 E.00823
G1 X135.247 Y106.795 E.02369
G1 X135.521 Y106.913 E.01384
G1 X135.703 Y107.1 E.01211
G1 X135.775 Y107.302 E.00995
G1 X135.768 Y107.787 E.0225
G1 X135.626 Y107.972 E.01082
;WIDTH:0.455736
G1 X135.484 Y108.158 E.00978
G1 X135.329 Y108.24 E.00733
;WIDTH:0.499999
G1 X135.174 Y108.323 E.00816
G1 X134.632 Y108.444 E.02576
G3 X133.225 Y108.537 I-1.152 J-6.766 E.06553
G1 X132.578 Y108.559 E.03003
G1 X132.186 Y108.432 E.01912
G1 X131.89 Y108.108 E.02036
G1 X131.769 Y107.746 E.01771
G1 X131.766 Y107.342 E.01874
G1 X131.883 Y106.972 E.018
G3 X132.737 Y105.77 I9.593 J5.913 E.06845
G1 X133.325 Y105.232 E.03697
G1 X133.555 Y104.89 E.01912
G1 X133.554 Y104.822 E.00316
G1 X133.349 Y104.738 E.01028
G1 X132.789 Y104.782 E.02606
G1 X132.346 Y104.682 E.02107
G1 X132.109 Y104.482 E.01439
G1 X131.998 Y104.055 E.02047
G1 X132.07 Y103.549 E.02371
G1 X132.204 Y103.336 E.01167
G1 X132.49 Y103.159 E.0156
G1 X132.972 Y103.055 E.02288
G1 X134.857 Y103.044 E.08745
G1 X135.114 Y103.059 E.01194
G1 X135.554 Y103.221 E.02175
G3 X135.854 Y103.667 I-.659 J.766 E.02524
G1 X135.902 Y104.152 E.02261
G1 X135.765 Y104.643 E.02365
G3 X135.116 Y105.592 I-8.753 J-5.288 E.05337
G3 X134.307 Y106.439 I-5.081 J-4.043 E.05441
G1 X134.276 Y106.688 E.01164
G1 X134.258 Y106.713 E.00143
G1 X134.384 Y106.727 E.00588
M204 P7000
G1 X134.782 Y106.77 F18000
G1 E-.5 F4800
G1 X100.594 Y99.311 F18000
G1 E.5 F4800
M204 P4000
;TYPE:Perimeter
G1 F6000
G1 X100.846 Y99.242 E.01212
G1 X124.208 Y97.818 E1.08584
G3 X135.412 Y102.368 I.84 J14 E.58002
;WIDTH:0.509836
G1 X135.87 Y102.898 E.03321
G1 X135.595 Y102.74 E.01504
;WIDTH:0.501571
G1 X135.246 Y102.632 E.01701
;WIDTH:0.499999
G1 X134.854 Y102.598 E.01825
G2 X132.825 Y102.625 I-.297 J53.56 E.09414
G1 X132.318 Y102.745 E.02417
G1 X131.952 Y102.968 E.01988
G1 X131.771 Y103.166 E.01245
G2 X131.253 Y102.724 I-1.728 J1.498 E.03171
G1 X130.838 Y102.656 E.01951
G1 X130.606 Y102.672 E.01079
G1 X130.058 Y102.95 E.02851
G2 X129.569 Y103.662 I2.586 J2.298 E.04018
G1 X129.398 Y103.322 E.01766
G1 X129.092 Y102.956 E.02213
G1 X128.636 Y102.707 E.0241
G1 X128.191 Y102.633 E.02093
G1 X127.727 Y102.698 E.02174
G1 X127.498 Y102.792 E.01148
G1 X127.15 Y103.12 E.02219
G1 X126.931 Y102.889 E.01477
G1 X126.516 Y102.69 E.02135
G1 X126.207 Y102.646 E.01448
G1 X125.721 Y102.779 E.02338
G1 X125.374 Y103.022 E.01965
G1 X125.185 Y103.269 E.01443
G1 X124.995 Y103.014 E.01475
G1 X124.582 Y102.725 E.02339
G1 X124.199 Y102.626 E.01835
G1 X123.921 Y102.633 E.0129
G1 X123.445 Y102.787 E.02321
G1 X123.033 Y103.135 E.02502
G1 X122.824 Y103.541 E.02118
G1 X122.781 Y103.971 E.02005
G1 X122.816 Y104.222 E.01176
G1 X123.008 Y104.753 E.0262
G1 X123.584 Y105.77 E.05422
G2 X123.28 Y106.357 I3.885 J2.387 E.03069
G2 X122.75 Y105.795 I-1.854 J1.215 E.03602
G2 X122.123 Y105.573 I-.84 J1.376 E.03108
